x-pack/solutions/observability/plugins/observability_onboarding/public/icons/nginx.svg

<svg width="25" height="24" viewBox="0 0 25 24" fill="none" xmlns="http://www.w3.org/2000/svg">
<g id="Nginx" clip-path="url(#clip0_2818_20405)">
<g id="Group">
<path id="Vector" fill-rule="evenodd" clip-rule="evenodd" d="M12.9984 0.000183105L23.3904 6.00018V18.0002L12.9984 24.0002L2.60645 18.0002V6.00018L12.9984 0.000183105Z" fill="#119639"/>
<path id="Vector_2" d="M9.37556 10.1344V16.4161C9.37556 17.0818 8.8359 17.6215 8.1702 17.6215C7.5045 17.6215 6.96484 17.0818 6.96484 16.4161V7.22419C6.96484 6.1503 8.26325 5.61252 9.02257 6.37192L16.1557 13.5059V7.22419C16.1557 6.55849 16.6953 6.01883 17.361 6.01883C18.0267 6.01883 18.5664 6.55849 18.5664 7.22419V16.4161C18.5664 17.49 17.268 18.0278 16.5087 17.2684L9.37556 10.1344Z" fill="white"/>
</g>
</g>
<defs>
<clipPath id="clip0_2818_20405">
<rect width="24" height="24" fill="white" transform="translate(0.998047 0.000183105)"/>
</clipPath>
</defs>
</svg>

<svg xmlns="http://www.w3.org/2000/svg" width="25" height="24" fill="none"><g clip-path="url(#a)"><path fill="#119639" fill-rule="evenodd" d="M12.998 0 23.39 6v12l-10.392 6-10.392-6V6z" clip-rule="evenodd"/><path fill="#fff" d="M9.376 10.134v6.282a1.205 1.205 0 1 1-2.411 0V7.224c0-1.074 1.298-1.611 2.058-.852l7.133 7.134V7.224a1.205 1.205 0 1 1 2.41 0v9.192c0 1.074-1.298 1.612-2.057.852z"/></g><defs><clipPath id="a"><path fill="#fff" d="M.998 0h24v24h-24z"/></clipPath></defs></svg>
